svg/material-icons/support/materialicons/20px.svg

<svg xmlns="http://www.w3.org/2000/svg" width="20" height="20" viewBox="0 0 20 20"><path d="M10 3c-3.87 0-7 3.13-7 7s3.13 7 7 7 7-3.13 7-7-3.13-7-7-7zm2.16 1.41c1.57.61 2.82 1.85 3.43 3.42l-2.78 1.15a2.99 2.99 0 0 0-1.79-1.79l1.14-2.78zm-4.32 0L9 7.18c-.85.3-1.51.96-1.82 1.81L4.41 7.84a6.032 6.032 0 0 1 3.43-3.43zm-.01 11.18a6.032 6.032 0 0 1-3.43-3.43l2.78-1.15c.3.84.97 1.51 1.81 1.81l-1.16 2.77zM8 10c0-1.1.9-2 2-2s2 .9 2 2-.9 2-2 2-2-.9-2-2zm4.17 5.59-1.15-2.78c.84-.3 1.5-.97 1.79-1.81l2.77 1.16a5.942 5.942 0 0 1-3.41 3.43z"/></svg>

<svg xmlns="http://www.w3.org/2000/svg" enable-background="new 0 0 20 20" height="20" viewBox="0 0 20 20" width="20"><g><rect fill="none" height="20" width="20"/></g><g><path d="M10,3c-3.87,0-7,3.13-7,7c0,3.87,3.13,7,7,7s7-3.13,7-7C17,6.13,13.87,3,10,3z M12.16,4.41c1.57,0.61,2.82,1.85,3.43,3.42 l-2.78,1.15c-0.3-0.83-0.96-1.49-1.79-1.79L12.16,4.41z M7.84,4.41L9,7.18c-0.85,0.3-1.51,0.96-1.82,1.81v0L4.41,7.84 C5.02,6.27,6.27,5.02,7.84,4.41z M7.83,15.59c-1.57-0.61-2.82-1.86-3.43-3.43l2.78-1.15v0c0.3,0.84,0.97,1.51,1.81,1.81L7.83,15.59 z M8,10c0-1.1,0.9-2,2-2s2,0.9,2,2c0,1.1-0.9,2-2,2S8,11.1,8,10z M12.17,15.59l-1.15-2.78c0.84-0.3,1.5-0.97,1.79-1.81l2.77,1.16 C14.98,13.74,13.74,14.98,12.17,15.59z"/></g></svg>
